X:1
T:Complainer
T:William Walker, 1835 G Major       Alto by William Walker, 1867
T:Transcribed from Southern Harmony, 1835, and.Christian Harmony, 1867.
T:Anonymous author, first published in Southern Harmony, 1835         76. 76. 76. 76. 
%%score [ 1 2 3 4 ]
L:1/8
Q:1/4=110
M:4/4
K:G
V:1 treble nm="Tr." snm="Tr."
V:2 treble nm="A." snm="A."
V:3 treble-8 nm="T." snm="T."
V:4 bass nm="B." snm="B."
V:1
"_1.  I   am  a great complainer,  That bears the name of Christ;  Come, all ye Zion's-mourners,   And  listen  to  my   cries:            I’ve    many   sore    temptations,   And\n2. O  Lord of  life  and  glory,   My  sins    to    me   re – veal;   And  by thy  love  and power,    My sin-sick soul be healed.          I  thought  my  war – fare  o –ver,   No\n" [Gd]4 | %1
 B2 B2 e2 d2 | B4 B2 B2 | d3 e d2 G2 | B4 d4 | B2 B2 e2 d2 | B4 B2 B2 | d3 e d2 d2 | B8 |: z4 d4 | %10
 B2 A2 Bc d2 | B4 B2 B2 | %12
"_1. sorrows   to     my   soul;    I        feel  my  faith  de –cli –ning,   And  my  af – fec –  tions  cold.\n2. trou – ble  I  should  see,   But now I'm like the lonely dove  That mourns on the wavering tree.\n" d3 e d2 G2 | %13
 B4 d4 | B2 B2 e2 d2 | B4 B2 B2 | d3 e d2 d2 | [Bd]8 :| %18
V:2
"_3.  I  wish  it  was with me now   As   in    the  days  of  old,  When the glorious light of Jesus   Was flowing in my soul;              But   now  l    am    dis–tres–sed,   And" D4 | %1
 D2 D2 G2 F2 | G4 D2 D2 | G3 G D2 D2 | E4 D4 | D2 D2 G2 F2 | G4 D2 D2 | D3 E F2 D2 | [B,D]8 |: %9
 z4 D4 | E2 F2 G2 D2 | D4 D2 D2 | %12
"_3.  no   re – lief   can   find,   With  a  hard  de–ceit–ful  heart,  And a wretched wandering mind." G3 G A2 B2 | %13
 G4 D4 | D2 D2 G2 F2 | G4 D2 D2 | G3 G D2 D2 | D8 :| %18
V:3
"_4.  It is great pride and passion,   Be – set  me   on   my  way;   So   I  am  filled  with  folly,   And  so   neglect    to   pray;          While  others  run   re – joi – cing,   And\n5. \nI read that peace and happiness Meet Christians in their way, That bear their cross with meekness, And don't neglect to pray;          \nBut      I,   a  thousand  ob – jects     Be–\n" D4 | %1
 G2 G2 B2 d2 | e4 d2 B2 | d3 B A2 G2 | B4 D4 | G2 G2 B2 d2 | e4 d2 B2 | d3 B A2 A2 | G8 |: z4 d4 | %10
 e2 d2 de f2 | g4 d2 B2 | %12
"_4. seem  to   lose   no  time,     I      am  so  weak  I     stum – ble,   And  so    I’m   left  be – hind. \n5. –set    me  on    my  way,     So    I    am  filled  with  fol  –  ly,    And  so    ne – glect  to   pray.\n""______________________________________________________________________________________________________________________\nThis tune was also arranged by William Hauser in his \nHesperian Harp\n, 1848.\nThis is in The Sacred Harp, p. 141, 1844 to the present, in three parts until the 1911 edition, when William Walker's Alto (above) was added." d3 B A2 G2 | %13
 B4 D4 | G2 G2 B2 d2 | e4 d2 B2 | d3 B A2 A2 | G8 :| %18
V:4
 D,4 | G,2 G,2 E,2 D,2 | E,4 D,2 B,,2 | D,3 E, D,2 G,2 | E,4 D,4 | G,2 G,2 E,2 D,2 | %6
 E,4 [D,G,]2 [B,,G,]2 | D,3 E, D,2 D,2 | [G,,G,]8 |: z4 G,4 | E,2 D,2 G,A, B,2 | G,4 G,2 G,2 | %12
 D,3 E, D,2 G,2 | E,4 D,4 | G,2 G,2 E,2 D,2 | E,4 [D,G,]2 [B,,G,]2 | D,3 E, D,2 D,2 | [G,,G,]8 :| %18

